Hatter-kde/actions/24/debug-execute-to-cursor.svg

<?xml version="1.0" encoding="UTF-8"?>
<svg viewBox="0 0 24 24" xmlns="http://www.w3.org/2000/svg">
 <defs id="defs3051">
  <style id="current-color-scheme" type="text/css">.ColorScheme-Text {
        color:#363636;
      }</style>
 </defs>
 <path class="ColorScheme-Text" d="m15 4v1h2v14h-2v1h5v-1h-2v-14h2v-1h-5zm-11 4v3 2 3h1v-3h4v2l4-3-4-3v2h-4v-3h-1z" fill="currentColor"/>
</svg>

<svg xmlns="http://www.w3.org/2000/svg" viewBox="0 0 24 24">
  <defs id="defs3051">
    <style type="text/css" id="current-color-scheme">
      .ColorScheme-Text {
        color:#363636;
      }
      </style>
  </defs>
 <path style="fill:currentColor;fill-opacity:1;stroke:none" 
     d="M 15 4 L 15 5 L 17 5 L 17 19 L 15 19 L 15 20 L 20 20 L 20 19 L 18 19 L 18 5 L 20 5 L 20 4 L 15 4 z M 4 8 L 4 11 L 4 13 L 4 16 L 5 16 L 5 13 L 9 13 L 9 15 L 13 12 L 9 9 L 9 11 L 5 11 L 5 8 L 4 8 z "
     class="ColorScheme-Text"
     />
</svg>
